X: 43013
T: Willy Atkinson's Schottische
R: barndance
M: 4/4
K: Gmajor
|:G>A|B2 B2 B<dd2|c>B c>d e4|d>g f>e d>c B>A|G>A (3 BAG D2 G>A|
B2 B2 B<dd2|c>B c>d e4|d>g f>e d>c B>A|G2 B2 G2:|
|:d2|c<A F2 F2 e2|d<B G2 G2 g2|f2 A>B c2 e2|d>B G>A B2 d2|
c<A F2 F2 e2|d<B G2 G2 g2|f2 A>B c>d e>f|g2 g2 g2:|
|:G>A|B2 B2 B2 A>G|F>E F>G A2 A>B|c2 c2 c2 B>A|G>F G>A B2 G>A|
B2 B2 B2 A>G|F>E F>G A2 A>B|c2 c2 c2 B>A|G2 B2 G2:|

